icons/box-download.svg

<svg xmlns="http://www.w3.org/2000/svg" viewBox="0 0 24 24" fill="currentColor">
  <path d="M3.75 7c0-1.88579 1.36421-3.25 3.25-3.25h1.25V7.5c0 1.21421 1.03579 2.25 2.25 2.25h3c1.2142 0 2.25-1.03579 2.25-2.25V3.75H17c1.7858 0 3.25 1.46421 3.25 3.25v10c0 1.7858-1.4642 3.25-3.25 3.25H7c-1.78579 0-3.25-1.4642-3.25-3.25V7Zm10.5-3.25h-4.5V7.5c0 .38579.3642.75.75.75h3c.3858 0 .75-.36421.75-.75V3.75ZM7 2.25C4.28579 2.25 2.25 4.28579 2.25 7v10c0 2.6142 2.13579 4.75 4.75 4.75h10c2.6142 0 4.75-2.1358 4.75-4.75V7c0-2.61421-2.1358-4.75-4.75-4.75H7Zm8 9.4004c.4142 0 .75.3358.75.75v2.9894l.7197-.7197c.2928-.2929.7677-.2929 1.0606 0 .2929.2929.2929.7678 0 1.0607l-1.7 1.7c-.2319.2319-.5235.2947-.7428.2947-.2243 0-.4387-.0621-.6229-.1542l-.1089-.0545-1.7861-1.786c-.2928-.2929-.2928-.7678 0-1.0607.2929-.2929.7678-.2929 1.0607 0l.6197.6197v-2.8894c0-.4142.3358-.75.75-.75Z"/>
</svg>

<svg width="24" height="24" viewBox="0 0 24 24" fill="none" xmlns="http://www.w3.org/2000/svg">
<path fill-rule="evenodd" clip-rule="evenodd" d="M3.75 7C3.75 5.11421 5.11421 3.75 7 3.75H8.25V7.5C8.25 8.71421 9.28579 9.75 10.5 9.75H13.5C14.7142 9.75 15.75 8.71421 15.75 7.5V3.75H17C18.7858 3.75 20.25 5.21421 20.25 7V17C20.25 18.7858 18.7858 20.25 17 20.25H7C5.21421 20.25 3.75 18.7858 3.75 17V7ZM14.25 3.75H9.75V7.5C9.75 7.88579 10.1142 8.25 10.5 8.25H13.5C13.8858 8.25 14.25 7.88579 14.25 7.5V3.75ZM7 2.25C4.28579 2.25 2.25 4.28579 2.25 7V17C2.25 19.6142 4.38579 21.75 7 21.75H17C19.6142 21.75 21.75 19.6142 21.75 17V7C21.75 4.38579 19.6142 2.25 17 2.25H7ZM15 11.6504C15.4142 11.6504 15.75 11.9862 15.75 12.4004V15.3898L16.4697 14.6701C16.7625 14.3772 17.2374 14.3772 17.5303 14.6701C17.8232 14.963 17.8232 15.4379 17.5303 15.7308L15.8303 17.4308C15.5984 17.6627 15.3068 17.7255 15.0875 17.7255C14.8632 17.7255 14.6488 17.6634 14.4646 17.5713L14.3557 17.5168L12.5696 15.7308C12.2768 15.4379 12.2768 14.963 12.5696 14.6701C12.8625 14.3772 13.3374 14.3772 13.6303 14.6701L14.25 15.2898V12.4004C14.25 11.9862 14.5858 11.6504 15 11.6504Z" fill="black"/>
</svg>
